X: 18194
T: Humours Of Glendart, The
R: jig
M: 6/8
K: Dmajor
|:d3/2e/f ddB|AFA AFA|def ddA|Be/e/e edB|
d3/2e/f ddB|AFA AFA|gg/f/e fdB|AFD DFA:|
|:BF/F/F AD/D/D|FEF AFD|BF/F/F ADA|AFD EFA|
BF/F/F AD/D/D|FEF AFD|gg/f/e fdB|AFD DFA:|

